widgets/picker.svg

<?xml version="1.0" encoding="UTF-8" standalone="no"?>
<svg id="svg31290" xmlns:rdf="http://www.w3.org/1999/02/22-rdf-syntax-ns#" xmlns="http://www.w3.org/2000/svg" height="24" width="24" version="1.1" xmlns:cc="http://creativecommons.org/ns#" xmlns:xlink="http://www.w3.org/1999/xlink" xmlns:dc="http://purl.org/dc/elements/1.1/">
	<defs id="defs31292">
		<linearGradient id="linearGradient4059-7" xlink:href="#linearGradient3887-2" gradientUnits="userSpaceOnUse" x2="0" y1="20"/>
		<linearGradient id="linearGradient3887-2">
			<stop id="stop3889-7" style="stop-color:#f8f8f8" offset="0"/>
			<stop id="stop3891-7" style="stop-color:#f0f0f0" offset="1"/>
		</linearGradient>
		<linearGradient id="linearGradient4061-6" xlink:href="#linearGradient3887-2" gradientUnits="userSpaceOnUse" x2="10" y1="20" x1="10"/>
		<linearGradient id="linearGradient3981-7" xlink:href="#linearGradient3887-2" gradientUnits="userSpaceOnUse" x2="10" gradientTransform="translate(0,-27)" y1="20" x1="10"/>
	</defs>
	<metadata id="metadata31295">
		<rdf:RDF>
			<cc:Work rdf:about="">
				<dc:format>image/svg+xml</dc:format>
				<dc:type rdf:resource="http://purl.org/dc/dcmitype/StillImage"/>
				<dc:title/>
				<dc:creator>
					<cc:Agent>
						<dc:title>obnosim</dc:title>
					</cc:Agent>
				</dc:creator>
				<cc:license rdf:resource="http://creativecommons.org/licenses/by-nc-sa/3.0/"/>
			</cc:Work>
			<cc:License rdf:about="http://creativecommons.org/licenses/by-nc-sa/3.0/">
				<cc:permits rdf:resource="http://creativecommons.org/ns#Reproduction"/>
				<cc:permits rdf:resource="http://creativecommons.org/ns#Distribution"/>
				<cc:requires rdf:resource="http://creativecommons.org/ns#Notice"/>
				<cc:requires rdf:resource="http://creativecommons.org/ns#Attribution"/>
				<cc:prohibits rdf:resource="http://creativecommons.org/ns#CommercialUse"/>
				<cc:permits rdf:resource="http://creativecommons.org/ns#DerivativeWorks"/>
				<cc:requires rdf:resource="http://creativecommons.org/ns#ShareAlike"/>
			</cc:License>
		</rdf:RDF>
	</metadata>
	<g id="layer1" transform="translate(2,29)">
		<rect id="hint-bottom-margin" style="fill:#4e9a06" height="2" width="2" y="-7" x="9"/>
		<g id="topleft" transform="translate(0,-27)">
			<path id="rect3922" style="fill:url(#linearGradient4059-7)" d="m3 0c-1.662 0-3 1.338-3 3h3v-3z"/>
			<path id="path3914" style="opacity:0.062;fill:#000000" d="m3 0c-1.662 0-3 1.338-3 3 0-.554 1.338-1 3-1v-2z"/>
		</g>
		<g id="topright" transform="translate(0,-27)">
			<path id="rect3934" style="fill:url(#linearGradient4061-6)" d="m17 0v3h3c0-1.662-1.338-3-3-3z"/>
			<path id="path4028" style="opacity:0.062;fill:#000000" d="m17 0v2c1.662 0 3 .446 3 1 0-1.662-1.338-3-3-3z"/>
		</g>
		<g id="top" transform="translate(0,-27)">
			<g id="g4012">
				<path id="rect3936" style="fill:url(#linearGradient4061-6)" d="m3 0v3h14v-3h-14z"/>
			</g>
			<path id="rect3879" style="opacity:0.062;fill:#000000" d="m3 0v2h14v-2h-14z"/>
		</g>
		<path id="center" style="fill:url(#linearGradient3981-7)" d="m3-24v14h14v-14h-14z"/>
		<path id="left" style="fill:url(#linearGradient3981-7)" d="m0-24v14h3v-14h-3z"/>
		<path id="right" style="fill:url(#linearGradient3981-7)" d="m17-24v14h3v-14h-3z"/>
		<g id="bottomright" transform="translate(0,-27)">
			<path id="rect3932" style="fill:url(#linearGradient4061-6)" d="m17 17v3c1.662 0 3-1.338 3-3h-3z"/>
			<path id="rect3895" style="fill:#ffffff" d="m20 17c0 1.108-1.338 2-3 2v1c1.662 0 3-1.338 3-3z"/>
		</g>
		<g id="bottomleft" transform="translate(0,-27)">
			<path id="rect3926" style="fill:url(#linearGradient4061-6)" d="m0 17c0 1.662 1.338 3 3 3v-3h-3z"/>
			<path id="path3916" style="fill:#ffffff" d="m0 17c0 1.662 1.338 3 3 3v-1c-1.662 0-3-.892-3-2z"/>
		</g>
		<g id="bottom" transform="translate(0,-27)">
			<path id="rect3928" style="fill:url(#linearGradient4061-6)" d="m3 17v3h14v-3h-14z"/>
			<path id="path3918" style="opacity:.875;fill:#ffffff" d="m3 19v1h14v-1h-14z"/>
		</g>
		<rect id="hint-left-margin" style="fill-rule:evenodd;fill:#008000" height="2" width="2" y="-18" x="-2"/>
		<rect id="hint-right-margin" style="fill-rule:evenodd;fill:#008000" height="2" width="2" y="-18" x="20"/>
		<rect id="hint-top-margin" style="fill-rule:evenodd;fill:#008000" height="2" width="2" y="-29" x="9"/>
		<rect id="hint-stretch-borders" style="fill-rule:evenodd;fill:#008000" height="2" width="2" y="-29" x="-2"/>
	</g>
</svg>

<?xml version="1.0" encoding="UTF-8" standalone="no"?>
<!-- Created with Inkscape (http://www.inkscape.org/) -->

<svg
   xmlns:dc="http://purl.org/dc/elements/1.1/"
   xmlns:cc="http://creativecommons.org/ns#"
   xmlns:rdf="http://www.w3.org/1999/02/22-rdf-syntax-ns#"
   xmlns:svg="http://www.w3.org/2000/svg"
   xmlns="http://www.w3.org/2000/svg"
   xmlns:xlink="http://www.w3.org/1999/xlink"
   xmlns:sodipodi="http://sodipodi.sourceforge.net/DTD/sodipodi-0.dtd"
   xmlns:inkscape="http://www.inkscape.org/namespaces/inkscape"
   width="24"
   height="24"
   id="svg31290"
   version="1.1"
   inkscape:version="0.91 r13725"
   sodipodi:docname="picker.svg">
  <defs
     id="defs31292">
    <linearGradient
       x1="0"
       y1="20"
       x2="0"
       y2="0"
       id="linearGradient4059-7"
       xlink:href="#linearGradient3887-2"
       gradientUnits="userSpaceOnUse" />
    <linearGradient
       id="linearGradient3887-2">
      <stop
         id="stop3889-7"
         style="stop-color:#f8f8f8;stop-opacity:1"
         offset="0" />
      <stop
         id="stop3891-7"
         style="stop-color:#f0f0f0;stop-opacity:1"
         offset="1" />
    </linearGradient>
    <linearGradient
       x1="10"
       y1="20"
       x2="10"
       y2="0"
       id="linearGradient4061-6"
       xlink:href="#linearGradient3887-2"
       gradientUnits="userSpaceOnUse" />
    <linearGradient
       gradientTransform="translate(0,-27)"
       x1="10"
       y1="20"
       x2="10"
       y2="0"
       id="linearGradient3981-7"
       xlink:href="#linearGradient3887-2"
       gradientUnits="userSpaceOnUse" />
    <linearGradient
       inkscape:collect="always"
       xlink:href="#linearGradient3887-2"
       id="linearGradient3513"
       gradientUnits="userSpaceOnUse"
       gradientTransform="translate(0,-27)"
       x1="10"
       y1="20"
       x2="10"
       y2="0" />
    <linearGradient
       inkscape:collect="always"
       xlink:href="#linearGradient3887-2"
       id="linearGradient3515"
       gradientUnits="userSpaceOnUse"
       gradientTransform="translate(0,-27)"
       x1="10"
       y1="20"
       x2="10"
       y2="0" />
    <linearGradient
       inkscape:collect="always"
       xlink:href="#linearGradient3887-2"
       id="linearGradient3517"
       gradientUnits="userSpaceOnUse"
       x1="10"
       y1="20"
       x2="10"
       y2="0" />
    <linearGradient
       inkscape:collect="always"
       xlink:href="#linearGradient3887-2"
       id="linearGradient3519"
       gradientUnits="userSpaceOnUse"
       x1="10"
       y1="20"
       x2="10"
       y2="0" />
    <linearGradient
       inkscape:collect="always"
       xlink:href="#linearGradient3887-2"
       id="linearGradient3521"
       gradientUnits="userSpaceOnUse"
       x1="10"
       y1="20"
       x2="10"
       y2="0" />
    <linearGradient
       inkscape:collect="always"
       xlink:href="#linearGradient3887-2"
       id="linearGradient3523"
       gradientUnits="userSpaceOnUse"
       x1="10"
       y1="20"
       x2="10"
       y2="0" />
  </defs>
  <sodipodi:namedview
     id="base"
     pagecolor="#323232"
     bordercolor="#666666"
     borderopacity="1.0"
     inkscape:pageopacity="0"
     inkscape:pageshadow="2"
     inkscape:zoom="9.899495"
     inkscape:cx="27.254407"
     inkscape:cy="-14.138601"
     inkscape:current-layer="layer1"
     showgrid="true"
     inkscape:grid-bbox="true"
     inkscape:document-units="px"
     inkscape:window-width="882"
     inkscape:window-height="790"
     inkscape:window-x="0"
     inkscape:window-y="0"
     inkscape:window-maximized="0"
     fit-margin-top="0"
     fit-margin-left="0"
     fit-margin-right="0"
     fit-margin-bottom="0"
     showborder="false">
    <inkscape:grid
       type="xygrid"
       id="grid31298"
       empspacing="5"
       visible="true"
       enabled="true"
       snapvisiblegridlinesonly="true"
       originx="2"
       originy="-53" />
  </sodipodi:namedview>
  <metadata
     id="metadata31295">
    <rdf:RDF>
      <cc:Work
         rdf:about="">
        <dc:format>image/svg+xml</dc:format>
        <dc:type
           rdf:resource="http://purl.org/dc/dcmitype/StillImage" />
        <dc:title />
        <dc:creator>
          <cc:Agent>
            <dc:title>obnosim</dc:title>
          </cc:Agent>
        </dc:creator>
        <cc:license
           rdf:resource="http://creativecommons.org/licenses/by-nc-sa/3.0/" />
      </cc:Work>
      <cc:License
         rdf:about="http://creativecommons.org/licenses/by-nc-sa/3.0/">
        <cc:permits
           rdf:resource="http://creativecommons.org/ns#Reproduction" />
        <cc:permits
           rdf:resource="http://creativecommons.org/ns#Distribution" />
        <cc:requires
           rdf:resource="http://creativecommons.org/ns#Notice" />
        <cc:requires
           rdf:resource="http://creativecommons.org/ns#Attribution" />
        <cc:prohibits
           rdf:resource="http://creativecommons.org/ns#CommercialUse" />
        <cc:permits
           rdf:resource="http://creativecommons.org/ns#DerivativeWorks" />
        <cc:requires
           rdf:resource="http://creativecommons.org/ns#ShareAlike" />
      </cc:License>
    </rdf:RDF>
  </metadata>
  <g
     id="layer1"
     inkscape:label="Layer 1"
     inkscape:groupmode="layer"
     transform="translate(2,29)">
    <rect
       style="fill:#4e9a06;fill-opacity:1;fill-rule:nonzero;stroke:none"
       id="hint-bottom-margin"
       width="2"
       height="1.9999999"
       x="9"
       y="-7" />
    <g
       transform="translate(0,-27)"
       id="topleft">
      <path
         inkscape:connector-curvature="0"
         d="M 3,0 C 1.338,0 0,1.338 0,3 L 3,3 3,0 Z"
         id="rect3922"
         style="fill:url(#linearGradient4059-7);fill-opacity:1;fill-rule:nonzero;stroke:none" />
      <path
         inkscape:connector-curvature="0"
         d="M 3,0 C 1.338,0 0,1.338 0,3 0,2.446 1.338,2 3,2 L 3,0 Z"
         id="path3914"
         style="opacity:0.06199999;fill:#000000;fill-opacity:1;fill-rule:nonzero;stroke:none" />
    </g>
    <g
       transform="translate(0,-27)"
       id="topright">
      <path
         inkscape:connector-curvature="0"
         d="m 17,0 0,3 3,0 C 20,1.338 18.662,0 17,0 Z"
         id="rect3934"
         style="fill:url(#linearGradient3517);fill-opacity:1;fill-rule:nonzero;stroke:none" />
      <path
         inkscape:connector-curvature="0"
         d="m 17,0 0,2 c 1.662,0 3,0.446 3,1 0,-1.662 -1.338,-3 -3,-3 z"
         id="path4028"
         style="opacity:0.06199999;fill:#000000;fill-opacity:1;fill-rule:nonzero;stroke:none" />
    </g>
    <g
       transform="translate(0,-27)"
       id="top">
      <g
         id="g4012">
        <path
           inkscape:connector-curvature="0"
           d="M 3,0 3,3 17,3 17,0 3,0 Z"
           id="rect3936"
           style="fill:url(#linearGradient3519);fill-opacity:1;fill-rule:nonzero;stroke:none" />
      </g>
      <path
         inkscape:connector-curvature="0"
         d="M 3,0 3,2 17,2 17,0 3,0 Z"
         id="rect3879"
         style="opacity:0.06199999;fill:#000000;fill-opacity:1;fill-rule:nonzero;stroke:none" />
    </g>
    <path
       inkscape:connector-curvature="0"
       d="m 3,-24 0,14 14,0 0,-14 -14,0 z"
       id="center"
       style="fill:url(#linearGradient3513);fill-opacity:1;fill-rule:nonzero;stroke:none" />
    <path
       inkscape:connector-curvature="0"
       d="m 0,-24 0,14 3,0 0,-14 -3,0 z"
       id="left"
       style="fill:url(#linearGradient3515);fill-opacity:1;fill-rule:nonzero;stroke:none" />
    <path
       inkscape:connector-curvature="0"
       d="m 17,-24 0,14 3,0 0,-14 -3,0 z"
       id="right"
       style="fill:url(#linearGradient3981-7);fill-opacity:1;fill-rule:nonzero;stroke:none" />
    <g
       transform="translate(0,-27)"
       id="bottomright">
      <path
         inkscape:connector-curvature="0"
         d="m 17,17 0,3 c 1.662,0 3,-1.338 3,-3 l -3,0 z"
         id="rect3932"
         style="fill:url(#linearGradient3521);fill-opacity:1;fill-rule:nonzero;stroke:none" />
      <path
         inkscape:connector-curvature="0"
         d="m 20,17 c 0,1.108 -1.338,2 -3,2 l 0,1 c 1.662,0 3,-1.338 3,-3 z"
         id="rect3895"
         style="fill:#ffffff;fill-opacity:1;fill-rule:nonzero;stroke:none" />
    </g>
    <g
       transform="translate(0,-27)"
       id="bottomleft">
      <path
         inkscape:connector-curvature="0"
         d="m 0,17 c 0,1.662 1.338,3 3,3 l 0,-3 -3,0 z"
         id="rect3926"
         style="fill:url(#linearGradient3523);fill-opacity:1;fill-rule:nonzero;stroke:none" />
      <path
         inkscape:connector-curvature="0"
         d="m 0,17 c 0,1.662 1.338,3 3,3 L 3,19 C 1.338,19 0,18.108 0,17 Z"
         id="path3916"
         style="fill:#ffffff;fill-opacity:1;fill-rule:nonzero;stroke:none" />
    </g>
    <g
       transform="translate(0,-27)"
       id="bottom">
      <path
         inkscape:connector-curvature="0"
         d="m 3,17 0,3 14,0 0,-3 -14,0 z"
         id="rect3928"
         style="fill:url(#linearGradient4061-6);fill-opacity:1;fill-rule:nonzero;stroke:none" />
      <path
         inkscape:connector-curvature="0"
         d="m 3,19 0,1 14,0 0,-1 -14,0 z"
         id="path3918"
         style="opacity:0.875;fill:#ffffff;fill-opacity:1;fill-rule:nonzero;stroke:none" />
    </g>
    <rect
       style="opacity:1;fill:#008000;fill-opacity:1;fill-rule:evenodd;stroke:none;stroke-width:2;stroke-linecap:round;stroke-linejoin:round;stroke-miterlimit:4;stroke-dasharray:none;stroke-dashoffset:0;stroke-opacity:1"
       id="hint-left-margin"
       width="2"
       height="2"
       x="-2"
       y="-18" />
    <rect
       y="-18"
       x="20"
       height="2"
       width="2"
       id="hint-right-margin"
       style="opacity:1;fill:#008000;fill-opacity:1;fill-rule:evenodd;stroke:none;stroke-width:2;stroke-linecap:round;stroke-linejoin:round;stroke-miterlimit:4;stroke-dasharray:none;stroke-dashoffset:0;stroke-opacity:1" />
    <rect
       style="opacity:1;fill:#008000;fill-opacity:1;fill-rule:evenodd;stroke:none;stroke-width:2;stroke-linecap:round;stroke-linejoin:round;stroke-miterlimit:4;stroke-dasharray:none;stroke-dashoffset:0;stroke-opacity:1"
       id="hint-top-margin"
       width="2"
       height="2"
       x="9"
       y="-29" />
    <rect
       style="opacity:1;fill:#008000;fill-opacity:1;fill-rule:evenodd;stroke:none;stroke-width:2;stroke-linecap:round;stroke-linejoin:round;stroke-miterlimit:4;stroke-dasharray:none;stroke-dashoffset:0;stroke-opacity:1"
       id="hint-stretch-borders"
       width="2"
       height="2"
       x="-2"
       y="-29" />
  </g>
</svg>
